dist/img/running.svg

<svg width="100" height="100" viewBox="0 0 100 100" fill="none" xmlns="http://www.w3.org/2000/svg">
<g clip-path="url(#clip0)">
<path d="M86.5787 27.0203C93.9907 27.0203 100 21.0115 100 13.5988C100 6.18678 93.9907 0.177246 86.5787 0.177246C79.1659 0.177246 73.1572 6.18678 73.1572 13.5988C73.1654 21.0083 79.1692 27.0121 86.5787 27.0203ZM86.5787 3.53262C92.1377 3.53262 96.6449 8.03977 96.6449 13.5988C96.6449 19.1585 92.1377 23.6649 86.5787 23.6649C81.0189 23.6649 76.5126 19.1585 76.5126 13.5988C76.5175 8.04223 81.0214 3.53836 86.5787 3.53262Z" fill="black"/>
<path d="M29.2973 39.4587C31.2601 39.462 33.1442 38.6837 34.5319 37.2944L49.6696 22.1551L59.7742 32.2597C62.6643 35.1498 67.3492 35.1498 70.2393 32.2597L70.25 32.2499C73.1318 29.3581 73.1318 24.6798 70.25 21.7881L55.5997 7.14187C52.3246 3.86677 47.0146 3.86677 43.7387 7.14187L24.0562 26.8228C21.941 28.9412 21.3103 32.1253 22.4571 34.8909C23.6048 37.6557 26.3032 39.4587 29.2973 39.4587ZM26.4285 29.2017L46.1111 9.51341C48.0763 7.549 51.2621 7.549 53.2281 9.51341L67.8776 24.1686C69.4521 25.7488 69.4521 28.3055 67.8776 29.8857L67.867 29.8963C66.2859 31.4725 63.7276 31.4725 62.1466 29.8963L50.8558 18.6039C50.2004 17.9485 49.1388 17.9485 48.4834 18.6039L32.1579 34.922C30.5548 36.4564 28.0259 36.4523 26.4285 34.9122C24.8582 33.3328 24.8582 30.7811 26.4285 29.2017Z" fill="black"/>
<path d="M93.2895 43.7968H76.5126V35.4083C76.5126 34.7301 76.1038 34.119 75.4763 33.8593C74.8496 33.5996 74.1279 33.7429 73.6487 34.2222L63.5826 44.2883C63.268 44.6029 63.0911 45.0297 63.0911 45.4745V52.1852C63.0911 54.9655 65.3438 57.2183 68.1241 57.2183H93.2895C96.9955 57.2183 100 54.2143 100 50.5075C100 46.8016 96.9955 43.7968 93.2895 43.7968ZM93.2895 53.8629H68.1241C67.1976 53.8629 66.4464 53.1117 66.4464 52.1852V46.1691L73.1572 39.4584V45.4745C73.1572 46.401 73.9084 47.1522 74.8349 47.1522H93.2895C95.1425 47.1522 96.6448 48.6545 96.6448 50.5075C96.6448 52.3613 95.1425 53.8629 93.2895 53.8629Z" fill="black"/>
<path d="M42.5025 65.7751L34.4025 57.675C33.7365 57.0458 32.6953 57.0458 32.0301 57.675L2.16756 87.5383C-0.72252 90.4276 -0.72252 95.1125 2.16756 98.0017V98.0099C5.05846 100.896 9.7401 100.896 12.631 98.0099L42.4935 68.1474C43.1513 67.4945 43.1546 66.4329 42.5025 65.7751ZM10.2636 95.6384C8.68417 97.2145 6.12586 97.2145 4.54647 95.6384H4.53992C2.95971 94.0598 2.95971 91.4991 4.53992 89.9205L33.2146 61.2335L38.9424 66.9629L10.2636 95.6384Z" fill="black"/>
<path d="M51.2326 48.3065C49.3714 46.3896 46.6206 45.6237 44.036 46.3019C41.4507 46.981 39.4322 48.9995 38.7523 51.5849C38.0732 54.1694 38.8383 56.9202 40.756 58.7822L53.8638 71.8867L37.9692 80.357C34.4344 82.3763 33.2007 86.8761 35.2126 90.415L35.451 90.8549C36.7813 93.156 39.2381 94.5732 41.8963 94.5723C43.1669 94.574 44.4153 94.2422 45.5171 93.6098L66.2097 82.4812L68.8942 80.9395C71.1608 79.6411 72.6935 77.3596 73.0392 74.7694C73.3841 72.1799 72.5027 69.5766 70.6554 67.7293L51.2326 48.3065ZM69.7125 74.3311C69.5085 75.8827 68.5886 77.2491 67.2279 78.0224L43.8861 90.6755C41.9602 91.7789 39.5043 91.1293 38.3771 89.2173L38.1371 88.7774C37.0386 86.8605 37.6841 84.4169 39.5862 83.293L57.4387 73.7823C57.9081 73.5324 58.2308 73.0745 58.3087 72.5486C58.3865 72.0227 58.2112 71.491 57.8344 71.115L43.1267 56.4098C41.5433 54.8264 41.5433 52.259 43.1267 50.6756C44.7102 49.0921 47.2775 49.0921 48.861 50.6756L68.2921 70.1017C69.4045 71.2092 69.9304 72.7763 69.7125 74.3311Z" fill="black"/>
</g>
<defs>
<clipPath id="clip0">
<rect width="100" height="100" fill="white"/>
</clipPath>
</defs>
</svg>

<svg width="100" height="100" fill="none" xmlns="http://www.w3.org/2000/svg"><g clip-path="url(#clip0)" fill="#000"><path d="M86.579 27.02C93.99 27.02 100 21.012 100 13.6 100 6.187 93.99.177 86.579.177c-7.413 0-13.422 6.01-13.422 13.422.008 7.41 6.012 13.413 13.422 13.421zm0-23.487c5.559 0 10.066 4.507 10.066 10.066 0 5.56-4.507 10.066-10.066 10.066-5.56 0-10.066-4.506-10.066-10.066.004-5.557 4.508-10.06 10.066-10.066zM29.297 39.459a7.381 7.381 0 005.235-2.165L49.67 22.155 59.774 32.26a7.4 7.4 0 0010.465 0l.011-.01a7.41 7.41 0 000-10.462L55.6 7.142a8.387 8.387 0 00-11.861 0l-19.683 19.68a7.404 7.404 0 005.241 12.637zm-2.869-10.257L46.111 9.513a5.034 5.034 0 017.117 0l14.65 14.656a4.05 4.05 0 010 5.717l-.011.01a4.051 4.051 0 01-5.72 0L50.856 18.604a1.677 1.677 0 00-2.373 0L32.158 34.922a4.135 4.135 0 01-5.73-.01 4.05 4.05 0 010-5.71zM93.29 43.797H76.513v-8.389a1.676 1.676 0 00-2.864-1.186L63.583 44.288a1.678 1.678 0 00-.492 1.187v6.71a5.032 5.032 0 005.033 5.033H93.29a6.71 6.71 0 100-13.421zm0 10.066H68.124a1.678 1.678 0 01-1.678-1.678V46.17l6.711-6.71v6.015c0 .927.751 1.678 1.678 1.678H93.29a3.355 3.355 0 010 6.71zM42.502 65.775l-8.1-8.1a1.727 1.727 0 00-2.372 0L2.168 87.538a7.397 7.397 0 000 10.464v.008a7.405 7.405 0 0010.463 0l29.862-29.863a1.678 1.678 0 00.01-2.372zM10.264 95.638a4.047 4.047 0 01-5.718 0H4.54a4.04 4.04 0 010-5.718l28.675-28.687 5.727 5.73-28.678 28.675z"/><path d="M51.233 48.306a7.41 7.41 0 00-12.48 3.279 7.408 7.408 0 002.003 7.197l13.108 13.105-15.895 8.47a7.382 7.382 0 00-2.756 10.058l.238.44a7.442 7.442 0 006.445 3.717 7.253 7.253 0 003.621-.962L66.21 82.48l2.684-1.541a8.39 8.39 0 001.761-13.21L51.233 48.305zm18.48 26.025a4.995 4.995 0 01-2.485 3.691L43.886 90.675a4.055 4.055 0 01-5.509-1.458l-.24-.44a4.038 4.038 0 011.45-5.484l17.852-9.51a1.676 1.676 0 00.395-2.668L43.127 56.41a4.055 4.055 0 015.734-5.734l19.431 19.426a4.99 4.99 0 011.42 4.23z"/></g><defs><clipPath id="clip0"><path fill="#fff" d="M0 0h100v100H0z"/></clipPath></defs></svg>
